assets/Yen banknote/Flat/yen_banknote_flat.svg

<svg width="32" height="32" viewBox="0 0 32 32" fill="none" xmlns="http://www.w3.org/2000/svg">
<path d="M2 10C2 8.89543 2.89543 8 4 8H14.5279C14.8384 8 15.1446 8.07229 15.4223 8.21115L16.1056 8.55279C16.6686 8.83431 17.3314 8.83431 17.8944 8.55279L18.5777 8.21115C18.8554 8.07229 19.1616 8 19.4721 8H28C29.1046 8 30 8.89543 30 10V24.5C30 25.6046 29.1046 26.5 28 26.5H4C2.89543 26.5 2 25.6046 2 24.5V10Z" fill="#F3C07B"/>
<path d="M26 17C26 19.4853 23.9853 21.5 21.5 21.5C19.0147 21.5 17 19.4853 17 17C17 14.5147 19.0147 12.5 21.5 12.5C23.9853 12.5 26 14.5147 26 17Z" fill="#B97028"/>
<path d="M3 11C3 9.89543 3.89543 9 5 9H27C28.1046 9 29 9.89543 29 11V23C29 24.1046 28.1046 25 27 25H5C3.89543 25 3 24.1046 3 23V11ZM5 10C4.44772 10 4 10.4477 4 11V23C4 23.5523 4.44772 24 5 24H27C27.5523 24 28 23.5523 28 23V11C28 10.4477 27.5523 10 27 10H5Z" fill="#B97028"/>
<path d="M2 28C2 29.1046 2.89543 30 4 30H15L17 29L19 30H28C29.1046 30 30 29.1046 30 28V24C30 25.1046 29.1046 26 28 26H4C2.89543 26 2 25.1046 2 24V28Z" fill="#B97028"/>
<path d="M19 8H15V27H19V8Z" fill="#FFF478"/>
<path d="M19 26H15V30H19V26Z" fill="#F3AD61"/>
<path d="M7.43705 12.2571C7.30294 12.0158 6.99854 11.9288 6.75715 12.0629C6.51576 12.197 6.42878 12.5014 6.56289 12.7428L8.92799 17H6.99997C6.72383 17 6.49997 17.2238 6.49997 17.5C6.49997 17.7761 6.72383 18 6.99997 18H8.99997V19H6.99997C6.72383 19 6.49997 19.2238 6.49997 19.5C6.49997 19.7761 6.72383 20 6.99997 20H8.99997V21.5C8.99997 21.7761 9.22383 22 9.49997 22C9.77611 22 9.99997 21.7761 9.99997 21.5V20H12C12.2761 20 12.5 19.7761 12.5 19.5C12.5 19.2238 12.2761 19 12 19H9.99997V18H12C12.2761 18 12.5 17.7761 12.5 17.5C12.5 17.2238 12.2761 17 12 17H10.0719L12.437 12.7428C12.5712 12.5014 12.4842 12.197 12.2428 12.0629C12.0014 11.9288 11.697 12.0158 11.5629 12.2571L9.49997 15.9704L7.43705 12.2571Z" fill="#F4F4F4"/>
</svg>

<svg xmlns="http://www.w3.org/2000/svg" width="32" height="32" fill="none"><path fill="#F3C07B" d="M2 10a2 2 0 0 1 2-2h10.528a2 2 0 0 1 .894.211l.684.342a2 2 0 0 0 1.788 0l.684-.342A2 2 0 0 1 19.472 8H28a2 2 0 0 1 2 2v14.5a2 2 0 0 1-2 2H4a2 2 0 0 1-2-2V10Z"/><path fill="#B97028" d="M26 17a4.5 4.5 0 1 1-9 0 4.5 4.5 0 0 1 9 0Z"/><path fill="#B97028" d="M3 11a2 2 0 0 1 2-2h22a2 2 0 0 1 2 2v12a2 2 0 0 1-2 2H5a2 2 0 0 1-2-2V11Zm2-1a1 1 0 0 0-1 1v12a1 1 0 0 0 1 1h22a1 1 0 0 0 1-1V11a1 1 0 0 0-1-1H5Z"/><path fill="#B97028" d="M2 28a2 2 0 0 0 2 2h11l2-1 2 1h9a2 2 0 0 0 2-2v-4a2 2 0 0 1-2 2H4a2 2 0 0 1-2-2v4Z"/><path fill="#FFF478" d="M19 8h-4v19h4V8Z"/><path fill="#F3AD61" d="M19 26h-4v4h4v-4Z"/><path fill="#F4F4F4" d="M7.437 12.257a.5.5 0 0 0-.874.486L8.928 17H7a.5.5 0 1 0 0 1h2v1H7a.5.5 0 1 0 0 1h2v1.5a.5.5 0 0 0 1 0V20h2a.5.5 0 0 0 0-1h-2v-1h2a.5.5 0 0 0 0-1h-1.928l2.365-4.257a.5.5 0 1 0-.874-.486L9.5 15.97l-2.063-3.713Z"/></svg>
